X: 11
T: The Maid at the Well 
S: N.Y. session, 2007
M: 6/8
L: 1/8
R: jig
K: G Major
|: GFG E2 D | GAB c2 e | dee dBG | AGE EDE | 
GFG E2 D | GAB c2 e | dee dBG | AGF G3 :|
|: gdd edd | gdB c2e | dee dBG | AGE EDE | 
gdd edd | gdB c2e | dee dBG | AGF G3 :|
|: GFG E2 D | GAB c2 e | dee dBG | AGE EDE | 
GFG E2 D | GAB c2 e | dee dBG | AGF G3 :|
|: gdd edd | gdB c2 e | ded gdB | ABc def | 
gdd edd | gdB c2 e | ded B3 | AGF G3 :|
